tools/download-figma-icons/icons/outlined-large/battery.svg

<svg width="64" height="64" viewBox="0 0 64 64" fill="none" xmlns="http://www.w3.org/2000/svg">
<path fill-rule="evenodd" clip-rule="evenodd" d="M15 11.5C15 10.121 16.121 9 17.5 9H23V3.5C23 3.225 23.225 3 23.5 3H40.5C40.775 3 41 3.225 41 3.5V9H46.5C47.879 9 49 10.121 49 11.5V58.5C49 59.879 47.879 61 46.5 61H17.5C16.121 61 15 59.879 15 58.5V11.5ZM17.5 64H46.5C49.532 64 52 61.532 52 58.5V11.5C52 8.468 49.532 6 46.5 6H44V3.5C44 1.57 42.43 0 40.5 0H23.5C21.57 0 20 1.57 20 3.5V6H17.5C14.468 6 12 8.468 12 11.5V58.5C12 61.532 14.468 64 17.5 64ZM30.6797 35.5602L26.0547 32.1172L35.8637 22.3462L32.0027 30.9582C31.8277 31.3492 31.8277 31.7972 32.0047 32.1882C32.1817 32.5792 32.5167 32.8762 32.9267 33.0042L37.2777 34.3572L27.7937 46.0722L31.1837 37.3042C31.4257 36.6762 31.2207 35.9632 30.6797 35.5602ZM22.1997 55.7352C22.4347 55.8722 22.6947 55.9372 22.9507 55.9372C23.3907 55.9372 23.8237 55.7442 24.1177 55.3812L41.0007 34.5252C41.3137 34.1392 41.4147 33.6232 41.2707 33.1462C41.1257 32.6712 40.7557 32.2982 40.2807 32.1492L35.4327 30.6412L41.9177 16.1762C42.2137 15.5162 41.9957 14.7392 41.4017 14.3282C40.8067 13.9182 40.0037 13.9892 39.4907 14.5002L22.7047 31.2202C22.3957 31.5272 22.2367 31.9552 22.2677 32.3892C22.2987 32.8252 22.5177 33.2242 22.8677 33.4852L27.9737 37.2862L21.5517 53.8962C21.2857 54.5862 21.5607 55.3652 22.1997 55.7352Z" fill="black"/>
</svg>

<svg xmlns="http://www.w3.org/2000/svg" width="64" height="64" fill="none" viewBox="0 0 64 64"><path fill="currentColor" fill-rule="evenodd" d="M15 11.5c0-1.379 1.121-2.5 2.5-2.5H23V3.5c0-.275.225-.5.5-.5h17c.275 0 .5.225.5.5V9h5.5c1.379 0 2.5 1.121 2.5 2.5v47c0 1.379-1.121 2.5-2.5 2.5h-29a2.5 2.5 0 0 1-2.5-2.5zM17.5 64h29c3.032 0 5.5-2.468 5.5-5.5v-47C52 8.468 49.532 6 46.5 6H44V3.5C44 1.57 42.43 0 40.5 0h-17C21.57 0 20 1.57 20 3.5V6h-2.5a5.507 5.507 0 0 0-5.5 5.5v47c0 3.032 2.468 5.5 5.5 5.5m13.18-28.44-4.625-3.443 9.809-9.77-3.861 8.611a1.5 1.5 0 0 0 .924 2.046l4.35 1.353-9.483 11.715 3.39-8.768a1.5 1.5 0 0 0-.504-1.744M22.2 55.735a1.5 1.5 0 0 0 1.918-.354L41 34.525a1.5 1.5 0 0 0-.72-2.376l-4.848-1.508 6.485-14.465A1.501 1.501 0 0 0 39.49 14.5L22.705 31.22a1.5 1.5 0 0 0 .163 2.265l5.106 3.801-6.422 16.61a1.5 1.5 0 0 0 .648 1.84" clip-rule="evenodd"/></svg>
